src/pos-icons/sofa.svg

<svg height="24" viewBox="0 0 24 24" width="24" xmlns="http://www.w3.org/2000/svg"><path d="m7 6h2a2 2 0 0 1 2 2v4h-6v-4a2 2 0 0 1 2-2m8 0h2a2 2 0 0 1 2 2v4h-6v-4a2 2 0 0 1 2-2m-14 3h1a1 1 0 0 1 1 1v2a2 2 0 0 0 2 2h14a2 2 0 0 0 2-2v-1-1a1 1 0 0 1 1-1h1a1 1 0 0 1 1 1v9h-3v-2h-18v2h-3v-9a1 1 0 0 1 1-1z"/></svg>

<?xml version="1.0" encoding="UTF-8"?><!DOCTYPE svg PUBLIC "-//W3C//DTD SVG 1.1//EN" "http://www.w3.org/Graphics/SVG/1.1/DTD/svg11.dtd"><svg xmlns="http://www.w3.org/2000/svg" xmlns:xlink="http://www.w3.org/1999/xlink" version="1.1" id="mdi-sofa" width="24" height="24" viewBox="0 0 24 24"><path d="M7,6H9A2,2 0 0,1 11,8V12H5V8A2,2 0 0,1 7,6M15,6H17A2,2 0 0,1 19,8V12H13V8A2,2 0 0,1 15,6M1,9H2A1,1 0 0,1 3,10V12A2,2 0 0,0 5,14H19A2,2 0 0,0 21,12V11L21,10A1,1 0 0,1 22,9H23A1,1 0 0,1 24,10V19H21V17H3V19H0V10A1,1 0 0,1 1,9Z" /></svg>
